raw/symbols/tsla.svg

<svg width="36" height="36" viewBox="0 0 36 36" fill="none" xmlns="http://www.w3.org/2000/svg">
<rect width="36" height="36" rx="18" fill="#BC6CE1"/>
<path d="M18.0034 29.7689L20.9938 12.9511C23.8441 12.9511 24.7431 13.2637 24.873 14.5395C24.873 14.5395 26.785 13.8265 27.7494 12.3786C23.9861 10.6347 20.2049 10.5561 20.2049 10.5561L17.9985 13.2435L18.0034 13.2431L15.797 10.5557C15.797 10.5557 12.0157 10.6344 8.25293 12.3782C9.21647 13.8262 11.1293 14.5391 11.1293 14.5391C11.2599 13.2633 12.1578 12.9507 14.989 12.9487L18.0034 29.7689Z" fill="#030303"/>
<path d="M18 9.77616C21.0421 9.7529 24.5241 10.2468 28.0886 11.8003C28.565 10.9428 28.6875 10.5639 28.6875 10.5639C24.791 9.02226 21.1419 8.49468 17.9996 8.48145C14.8574 8.49468 11.2085 9.02234 7.3125 10.5639C7.3125 10.5639 7.48631 11.0307 7.91097 11.8003C11.4748 10.2468 14.9574 9.7529 17.9996 9.77616H18Z" fill="#030303"/>
</svg>

<svg xmlns="http://www.w3.org/2000/svg" width="36" height="36" fill="none"><rect width="36" height="36" fill="#BC6CE1" rx="18"/><path fill="#030303" d="m18.003 29.769 2.99-16.818c2.851 0 3.75.313 3.88 1.588 0 0 1.912-.713 2.876-2.16-3.763-1.744-7.544-1.823-7.544-1.823l-2.206 2.688h.004l-2.206-2.688s-3.781.078-7.544 1.822c.963 1.448 2.876 2.161 2.876 2.161.13-1.276 1.029-1.588 3.86-1.59l3.014 16.82Z"/><path fill="#030303" d="M18 9.776c3.042-.023 6.524.47 10.089 2.024.476-.857.599-1.236.599-1.236A29.257 29.257 0 0 0 18 8.48c-3.143.014-6.791.541-10.688 2.083 0 0 .174.467.599 1.236C11.475 10.247 14.957 9.753 18 9.776Z"/></svg>
